X:1
T:Title
%%score 1 { ( 2 4 ) | 3 }
L:1/8
Q:1/4=110
M:6/8
K:Ab
V:1 treble nm="Grand Piano"
V:2 bass nm="Grand Piano"
V:4 bass 
V:3 bass 
V:1
 EFE c2 c | e3 B3 | EGB d2 d | c6 | EFE c2 c | e3 B2 c | d2 d c2 B | A6 | z6 | z6 | z6 | z6 | z6 | %13
w: Lester~Price * * * *|||||||||||||
 z6 | z6 | z6 | z6 | z6 | z6 | z6 | z6 | z6 | z6 | z6 |] %24
w: |||||||||||
V:2
 .[E,A,CE]3 .[E,A,CE]3 | .[E,G,DE]3 .[E,G,DE]3 | .[E,G,DE]3 .[E,G,DE]3 | .[E,A,CE]3 .[E,A,CE]3 | %4
 .[E,A,CE]3 .[E,A,CE]3 | .[E,G,DE]3 .[E,G,DE]3 | .[E,G,DE]3 .[E,G,DE]3 | [A,CA]6 | F2 G [A,FA]GF | %9
 [CE]3 [Ec]3 | e3 [EGB]3 | e3 [EAc]3 | [DF]2 G [A,FA]GF | [CE]3 [Ec]3 | [DEB]3 [DE]2 [DE] | [CA]6 | %16
 [DF]2 G [A,FA]GF | [CE]3 [Ec]3 | e3 [EGB]3 | e3 [EAc]3 | [DF]2 G [A,FA]GF | [CE]3 [Ec]3 | %22
 [DEB]3 [DE]2 [DE] | [CA]6 |] %24
V:3
 .A,,3 .E,,3 | .B,,3 .E,,3 | .B,,3 .E,,3 | .A,,3 .E,,3 | .A,,3 .E,,3 | .B,,3 .E,,3 | .B,,3 .E,,3 | %7
 .[A,,E,]3 .A,,,3 | .[D,A,D]2 E D,ED | .[A,,A,]3 .[A,,A,]3 | .[E,G,D]3 .[E,G,D]3 | %11
 .[E,A,C]3 .[E,A,C]3 | .[D,A,]2 E D,ED | .[A,,A,]3 .[A,,A,]3 | .[E,G,]3 .[E,G,]3 | [A,,E,A,]6 | %16
 .[D,A,]2 E D,ED | .[A,,A,]3 .[A,,A,]3 | .[E,G,D]3 .[E,G,D]3 | .[E,A,C]3 .[E,A,C]3 | %20
 .[D,A,]2 E D,ED | .[A,,A,]3 .[A,,A,]3 | .[E,G,]3 .[E,G,]3 | [A,,E,A,]6 |] %24
V:4
 x6 | x6 | x6 | x6 | x6 | x6 | x6 | z3 .A,,3 | x6 | x6 | x6 | x6 | x6 | x6 | x6 | x6 | x6 | x6 | %18
 x6 | x6 | x6 | x6 | x6 | x6 |] %24

